X:32
T:The Kerry Jig
B:Joyce, P. W.; "Old Irish Folk Music and Songs"
R:jig
H:I learned this jig in early days from hearing pipers and fiddlers play
H:it; and it has remained in my memory ever since.
L:1/8
M:6/8
K:C
B|A3 AGE|c2 A AGE|G3 cGE|G3 E2 G|
ABA A2 c|BdB G2 B|A2 c BdB|c3 c2||
d|efe edB|d2 ^f g2 e|dcB cBA|G3 E2 G|
A2 B c2 A|Bdc BAG|A2 c BdB|c3 c2||

